X:1
T: Lang Syne
C:
R:Reel
Q: 232
K:G
M:4/4
L:1/8
|:D|G2 GB AG AB|G1/2G1/2G Bd e3g|dB BG AG AB|GE ED GD B,D|
G2 GB AG AB|G1/2G1/2G Bd e3g|dB BG AG AB|GE ED GD B,D|
dB BG AG AB|dB Bd e3g|dB BG AG AB|GE ED G3e|
dB BG AG AB|dB Bd e3g|dB BG AG AB|GE ED GD B,D:|
